actions/symbolic/go-top-symbolic.svg

<svg xmlns="http://www.w3.org/2000/svg" viewBox="0 0 16 16">
  <defs id="defs3051">
    <style type="text/css" id="current-color-scheme">
      .ColorScheme-Text {
        color:#bebebe;
      }
      </style>
  </defs>
 <path 
       style="fill:currentColor;fill-opacity:1;stroke:none"
	 class="ColorScheme-Text"
        d="M 8 2.5351562 A 1.5 1.5 0 0 0 6.5 4.0351562 A 1.5 1.5 0 0 0 8 5.5351562 A 1.5 1.5 0 0 0 9.5 4.0351562 A 1.5 1.5 0 0 0 8 2.5351562 z M 8.0214844 6.6054688 C 7.8063944 6.6046907 7.5904212 6.6861794 7.4257812 6.8496094 L 2.2480469 11.990234 C 1.9184669 12.317273 1.9170306 12.850433 2.2441406 13.179688 C 2.5710406 13.508966 3.1023806 13.510507 3.4316406 13.183594 L 8.0136719 8.6347656 L 12.5625 13.216797 C 12.88954 13.546077 13.422673 13.547616 13.751953 13.220703 C 14.081373 12.893797 14.082809 12.362616 13.755859 12.033203 L 8.6152344 6.8535156 C 8.4517044 6.6888756 8.2364744 6.6062457 8.0214844 6.6054688 z "
     />
</svg>

<svg xmlns="http://www.w3.org/2000/svg" viewBox="0 0 16 16">
  <path fill="#bebebe" d="M8 2.535a1.5 1.5 0 0 0-1.5 1.5 1.5 1.5 0 0 0 1.5 1.5 1.5 1.5 0 0 0 1.5-1.5 1.5 1.5 0 0 0-1.5-1.5zm.021 4.07a.84.84 0 0 0-.595.245l-5.178 5.14a.841.841 0 0 0 1.184 1.194l4.582-4.55 4.549 4.583a.84.84 0 1 0 1.193-1.184l-5.14-5.18a.839.839 0 0 0-.595-.248z"/>
</svg>
